SVG_Azure_Grouped/Management/Application Change Analysis.svg

<?xml version="1.0" encoding="UTF-8" standalone="no"?>
<!DOCTYPE svg PUBLIC "-//W3C//DTD SVG 1.1//EN" "http://www.w3.org/Graphics/SVG/1.1/DTD/svg11.dtd">
<!-- Generated by Microsoft Visio, SVG Export Application Change Analysis.svg Page-1 -->
<svg xmlns="http://www.w3.org/2000/svg" xmlns:xlink="http://www.w3.org/1999/xlink" xmlns:ev="http://www.w3.org/2001/xml-events"
		width="1.73185in" height="1.73208in" viewBox="0 0 124.693 124.709" xml:space="preserve" color-interpolation-filters="sRGB"
		class="st8">
	<style type="text/css">
	<![CDATA[
		.st1 {fill:#76bc2d;stroke:none;stroke-linecap:butt;stroke-width:34}
		.st2 {fill:url(#grad0-8);stroke:none;stroke-linecap:butt;stroke-width:34}
		.st3 {fill:url(#grad0-12);stroke:none;stroke-linecap:butt;stroke-width:34}
		.st4 {fill:url(#grad0-16);stroke:none;stroke-linecap:butt;stroke-width:34}
		.st5 {fill:url(#grad0-20);stroke:none;stroke-linecap:butt;stroke-width:34}
		.st6 {fill:#0078d4;stroke:none;stroke-linecap:butt;stroke-width:34}
		.st7 {fill:#ffffff;stroke:none;stroke-linecap:butt;stroke-width:34}
		.st8 {fill:none;fill-rule:evenodd;font-size:12px;overflow:visible;stroke-linecap:square;stroke-miterlimit:3}
	]]>
	</style>

	<defs id="Patterns_And_Gradients">
		<linearGradient id="grad0-8" x1="0" y1="0" x2="1" y2="0" gradientTransform="rotate(-84.6 0.5 0.5)">
			<stop offset="0" stop-color="#5e9624" stop-opacity="1"/>
			<stop offset="0.82" stop-color="#86d633" stop-opacity="1"/>
		</linearGradient>
		<linearGradient id="grad0-12" x1="0" y1="0" x2="1" y2="0" gradientTransform="rotate(-89.369771843738 0.5 0.5)">
			<stop offset="0" stop-color="#5e9624" stop-opacity="1"/>
			<stop offset="0.82" stop-color="#86d633" stop-opacity="1"/>
		</linearGradient>
		<linearGradient id="grad0-16" x1="0" y1="0" x2="1" y2="0" gradientTransform="rotate(-84.784845544421 0.5 0.5)">
			<stop offset="0" stop-color="#5e9624" stop-opacity="1"/>
			<stop offset="0.82" stop-color="#86d633" stop-opacity="1"/>
		</linearGradient>
		<linearGradient id="grad0-20" x1="0" y1="0" x2="1" y2="0" gradientTransform="rotate(-84.784845544421 0.5 0.5)">
			<stop offset="0" stop-color="#5e9624" stop-opacity="1"/>
			<stop offset="0.82" stop-color="#86d633" stop-opacity="1"/>
		</linearGradient>
	</defs>
	<g>
		<title>Page-1</title>
		<g id="group13003-1" transform="translate(34,-34.0157)">
			<title>Application Change Analysis.13003</title>
			<g id="group13004-2">
				<title>Sheet.13004</title>
				<g id="shape13005-3" transform="translate(3.42572,-3.18442)">
					<title>Sheet.13005</title>
					<path d="M3.54 124.71 L0 121.56 L17.28 102.12 L31.99 117.34 L45.87 102.55 L49.3 105.8 L32.02 124.21 L17.45 109.06
								 L3.54 124.71 Z" class="st1"/>
				</g>
				<g id="shape13006-5" transform="translate(15.1072,-16.569)">
					<title>Sheet.13006</title>
					<ellipse cx="5.67063" cy="119.011" rx="5.67063" ry="5.69843" class="st2"/>
				</g>
				<g id="shape13007-9" transform="translate(29.7508,-1.89054)">
					<title>Sheet.13007</title>
					<ellipse cx="5.67063" cy="119.011" rx="5.67063" ry="5.69843" class="st3"/>
				</g>
				<g id="shape13008-13" transform="translate(45.3517,-18.5132)">
					<title>Sheet.13008</title>
					<ellipse cx="5.67063" cy="119.011" rx="5.67063" ry="5.69843" class="st4"/>
				</g>
				<g id="shape13009-17">
					<title>Sheet.13009</title>
					<ellipse cx="5.67063" cy="119.011" rx="5.67063" ry="5.69843" class="st5"/>
				</g>
				<g id="shape13010-21" transform="translate(19.8191,-20.0149)">
					<title>Sheet.13010</title>
					<path d="M25.8 113.91 L15.2 124.71 L4.49 113.91 A14.8437 14.9165 0 0 1 4.2 92.82 L4.49 92.53 A14.9104 14.9835
								 0 0 1 25.58 92.31 L25.8 92.53 A14.9137 14.9869 0 0 1 25.99 113.73 L25.8 113.91 Z" class="st6"/>
				</g>
				<g id="shape13011-23" transform="translate(22.8352,-32.2781)">
					<title>Sheet.13011</title>
					<path d="M3.04 112.52 A9.60004 9.64711 -180 0 0 4.01 120.03 A9.26647 9.31191 -180 0 0 5.75 122.16 A9.7368 9.78454
								 -180 0 0 7.94 123.73 A11.0277 11.0818 -180 0 0 10.48 124.6 A9.00629 9.05045 -180 0 0 13.22 124.6
								 L12.98 121.99 a0.557056 0.559787 -180 0 0 -0.523699 -0.489395 A6.46451 6.49621 0 0 1 11.07 121.5
								 A7.67202 7.70964 0 0 1 9.37 120.9 A6.48453 6.51632 0 0 1 7.87 119.85 A6.09092 6.12079 0 0 1 6.69
								 118.39 A5.81072 5.83922 0 0 1 5.85 116.01 A6.85479 6.8884 0 0 1 5.85 113.5 L6.76 115 a0.55372 0.556435
								 -180 0 0 0.73051 -1.42109E-14 L8.71 114.68 a0.557056 0.559787 -180 0 0 0.173454 -0.734092 L5.88
								 109.02 a0.550384 0.553083 -180 0 0 -0.667132 -0.335202 L0.14 111.71 a0.55372 0.556435 -180 0 0 1.88738E-15
								 0.734092 L0.76 113.52 a0.557056 0.559787 -180 0 0 0.73051 0.207825 L3.04 112.52 ZM13.57 108.78 A5.82407
								 5.85262 0 0 1 15.27 109.37 A6.28105 6.31185 0 0 1 17.94 111.85 A6.22101 6.25151 0 0 1 18.78 114.26
								 A6.90816 6.94203 0 0 1 18.78 116.81 L17.91 115.31 a0.557056 0.559787 -180 0 0 -0.727174 -0.224585
								 L16.11 115.76 a0.523699 0.526267 -180 0 0 -0.226825 0.707276 L15.88 116.49 L18.9 121.56 a0.523699
								 0.526267 -180 0 0 0.700489 0.224585 L19.63 121.78 L24.67 118.74 a0.520363 0.522915 -180 0 0 -4.9738E-14
								 -0.734092 L24.05 116.93 a0.560391 0.563139 -180 0 0 -0.73051 0 L21.58 117.98 A9.41991 9.4661 -180
								 0 0 21.85 114.13 A8.95959 9.00352 -180 0 0 20.6 110.44 A9.24979 9.29515 -180 0 0 18.9 108.27 A10.8542
								 10.9075 -180 0 0 16.67 106.73 A9.17974 9.22476 -180 0 0 14.13 105.86 A9.22644 9.27168 -180 0 0 11.98
								 105.53 a0.55372 0.556435 -180 0 0 -0.487007 0.593307 L11.49 108.18 a0.560391 0.563139 -180 0 0 0.523699
								 0.489395 A6.00419 6.03363 0 0 1 13.57 108.78 Z" class="st7"/>
				</g>
			</g>
		</g>
	</g>
</svg>

<?xml version="1.0" encoding="UTF-8" standalone="no"?>
<!-- Generated by Microsoft Visio, SVG Export Application Change Analysis.svg Page-1 -->

<svg
   xmlns:dc="http://purl.org/dc/elements/1.1/"
   xmlns:cc="http://creativecommons.org/ns#"
   xmlns:rdf="http://www.w3.org/1999/02/22-rdf-syntax-ns#"
   xmlns:svg="http://www.w3.org/2000/svg"
   xmlns="http://www.w3.org/2000/svg"
   xmlns:sodipodi="http://sodipodi.sourceforge.net/DTD/sodipodi-0.dtd"
   xmlns:inkscape="http://www.inkscape.org/namespaces/inkscape"
   width="0.78740346in"
   height="0.78744298in"
   viewBox="0 0 56.692958 56.69555"
   xml:space="preserve"
   class="st8"
   version="1.1"
   id="svg70"
   sodipodi:docname="Application Change Analysis.svg"
   style="font-size:12px;overflow:visible;color-interpolation-filters:sRGB;fill:none;fill-rule:evenodd;stroke-linecap:square;stroke-miterlimit:3"
   inkscape:version="0.92.5 (2060ec1f9f, 2020-04-08)"><metadata
   id="metadata74"><rdf:RDF><cc:Work
       rdf:about=""><dc:format>image/svg+xml</dc:format><dc:type
         rdf:resource="http://purl.org/dc/dcmitype/StillImage" /></cc:Work></rdf:RDF></metadata><sodipodi:namedview
   pagecolor="#ffffff"
   bordercolor="#666666"
   borderopacity="1"
   objecttolerance="10"
   gridtolerance="10"
   guidetolerance="10"
   inkscape:pageopacity="0"
   inkscape:pageshadow="2"
   inkscape:window-width="640"
   inkscape:window-height="480"
   id="namedview72"
   showgrid="false"
   inkscape:zoom="1.4192955"
   inkscape:cx="37.795396"
   inkscape:cy="37.785703"
   inkscape:window-x="0"
   inkscape:window-y="0"
   inkscape:window-maximized="0"
   inkscape:current-layer="svg70" />
	<style
   type="text/css"
   id="style2">
	<![CDATA[
		.st1 {fill:#76bc2d;stroke:none;stroke-linecap:butt;stroke-width:34}
		.st2 {fill:url(#grad0-8);stroke:none;stroke-linecap:butt;stroke-width:34}
		.st3 {fill:url(#grad0-12);stroke:none;stroke-linecap:butt;stroke-width:34}
		.st4 {fill:url(#grad0-16);stroke:none;stroke-linecap:butt;stroke-width:34}
		.st5 {fill:url(#grad0-20);stroke:none;stroke-linecap:butt;stroke-width:34}
		.st6 {fill:#0078d4;stroke:none;stroke-linecap:butt;stroke-width:34}
		.st7 {fill:#ffffff;stroke:none;stroke-linecap:butt;stroke-width:34}
		.st8 {fill:none;fill-rule:evenodd;font-size:12px;overflow:visible;stroke-linecap:square;stroke-miterlimit:3}
	]]>
	</style>

	<defs
   id="Patterns_And_Gradients">
		<linearGradient
   id="grad0-8"
   x1="0"
   y1="113.03583"
   x2="11.369026"
   y2="113.03583"
   gradientTransform="scale(0.99755774,1.0024482)"
   gradientUnits="userSpaceOnUse">
			<stop
   offset="0"
   stop-color="#5e9624"
   stop-opacity="1"
   id="stop4" />
			<stop
   offset="0.82"
   stop-color="#86d633"
   stop-opacity="1"
   id="stop6" />
		</linearGradient>
		<linearGradient
   id="grad0-12"
   x1="0"
   y1="113.03583"
   x2="11.369026"
   y2="113.03583"
   gradientTransform="scale(0.99755774,1.0024482)"
   gradientUnits="userSpaceOnUse">
			<stop
   offset="0"
   stop-color="#5e9624"
   stop-opacity="1"
   id="stop9" />
			<stop
   offset="0.82"
   stop-color="#86d633"
   stop-opacity="1"
   id="stop11" />
		</linearGradient>
		<linearGradient
   id="grad0-16"
   x1="0"
   y1="113.03583"
   x2="11.369026"
   y2="113.03583"
   gradientTransform="scale(0.99755774,1.0024482)"
   gradientUnits="userSpaceOnUse">
			<stop
   offset="0"
   stop-color="#5e9624"
   stop-opacity="1"
   id="stop14" />
			<stop
   offset="0.82"
   stop-color="#86d633"
   stop-opacity="1"
   id="stop16" />
		</linearGradient>
		<linearGradient
   id="grad0-20"
   x1="0"
   y1="113.03583"
   x2="11.369026"
   y2="113.03583"
   gradientTransform="scale(0.99755774,1.0024482)"
   gradientUnits="userSpaceOnUse">
			<stop
   offset="0"
   stop-color="#5e9624"
   stop-opacity="1"
   id="stop19" />
			<stop
   offset="0.82"
   stop-color="#86d633"
   stop-opacity="1"
   id="stop21" />
		</linearGradient>
	</defs>
	<g
   id="g68"
   transform="translate(-34,-33.998208)">
		<title
   id="title25">Page-1</title>
		<g
   id="group13296-1"
   transform="translate(34,-34.0157)">
			<title
   id="title27">Application Change Analysis.13296</title>
			<g
   id="group13297-2">
				<title
   id="title29">Sheet.13297</title>
				<g
   id="shape13298-3"
   transform="translate(3.42572,-3.18442)">
					<title
   id="title31">Sheet.13298</title>
					<path
   d="M 3.54,124.71 0,121.56 17.28,102.12 31.99,117.34 45.87,102.55 49.3,105.8 32.02,124.21 17.45,109.06 Z"
   class="st1"
   id="path33"
   inkscape:connector-curvature="0"
   style="fill:#76bc2d;stroke:none;stroke-width:34;stroke-linecap:butt" />
				</g>
				<g
   id="shape13299-5"
   transform="translate(15.1072,-16.569)">
					<title
   id="title36">Sheet.13299</title>
					<ellipse
   cx="5.67063"
   cy="119.011"
   rx="5.67063"
   ry="5.6984301"
   class="st2"
   id="ellipse38"
   style="fill:url(#grad0-8);stroke:none;stroke-width:34;stroke-linecap:butt" />
				</g>
				<g
   id="shape13300-9"
   transform="translate(29.7508,-1.89054)">
					<title
   id="title41">Sheet.13300</title>
					<ellipse
   cx="5.67063"
   cy="119.011"
   rx="5.67063"
   ry="5.6984301"
   class="st3"
   id="ellipse43"
   style="fill:url(#grad0-12);stroke:none;stroke-width:34;stroke-linecap:butt" />
				</g>
				<g
   id="shape13301-13"
   transform="translate(45.3517,-18.5132)">
					<title
   id="title46">Sheet.13301</title>
					<ellipse
   cx="5.67063"
   cy="119.011"
   rx="5.67063"
   ry="5.6984301"
   class="st4"
   id="ellipse48"
   style="fill:url(#grad0-16);stroke:none;stroke-width:34;stroke-linecap:butt" />
				</g>
				<g
   id="shape13302-17">
					<title
   id="title51">Sheet.13302</title>
					<ellipse
   cx="5.67063"
   cy="119.011"
   rx="5.67063"
   ry="5.6984301"
   class="st5"
   id="ellipse53"
   style="fill:url(#grad0-20);stroke:none;stroke-width:34;stroke-linecap:butt" />
				</g>
				<g
   id="shape13303-21"
   transform="translate(19.8191,-20.0149)">
					<title
   id="title56">Sheet.13303</title>
					<path
   d="M 25.8,113.91 15.2,124.71 4.49,113.91 A 14.8437,14.9165 0 0 1 4.2,92.82 l 0.29,-0.29 a 14.9104,14.9835 0 0 1 21.09,-0.22 l 0.22,0.22 a 14.9137,14.9869 0 0 1 0.19,21.2 z"
   class="st6"
   id="path58"
   inkscape:connector-curvature="0"
   style="fill:#0078d4;stroke:none;stroke-width:34;stroke-linecap:butt" />
				</g>
				<g
   id="shape13304-23"
   transform="translate(22.8352,-32.2781)">
					<title
   id="title61">Sheet.13304</title>
					<path
   d="m 3.04,112.52 a 9.60004,9.64711 -180 0 0 0.97,7.51 9.26647,9.31191 -180 0 0 1.74,2.13 9.7368,9.78454 -180 0 0 2.19,1.57 11.0277,11.0818 -180 0 0 2.54,0.87 9.00629,9.05045 -180 0 0 2.74,0 l -0.24,-2.61 A 0.557056,0.559787 -180 0 0 12.456301,121.5006 6.46451,6.49621 0 0 1 11.07,121.5 a 7.67202,7.70964 0 0 1 -1.7,-0.6 6.48453,6.51632 0 0 1 -1.5,-1.05 6.09092,6.12079 0 0 1 -1.18,-1.46 5.81072,5.83922 0 0 1 -0.84,-2.38 6.85479,6.8884 0 0 1 0,-2.51 l 0.91,1.5 a 0.55372,0.556435 -180 0 0 0.73051,0 L 8.71,114.68 a 0.557056,0.559787 -180 0 0 0.173454,-0.73409 L 5.88,109.02 A 0.550384,0.553083 -180 0 0 5.212868,108.6848 L 0.14,111.71 a 0.55372,0.556435 -180 0 0 0,0.73409 L 0.76,113.52 a 0.557056,0.559787 -180 0 0 0.73051,0.20782 z m 10.53,-3.74 a 5.82407,5.85262 0 0 1 1.7,0.59 6.28105,6.31185 0 0 1 2.67,2.48 6.22101,6.25151 0 0 1 0.84,2.41 6.90816,6.94203 0 0 1 0,2.55 l -0.87,-1.5 a 0.557056,0.559787 -180 0 0 -0.727174,-0.22459 L 16.11,115.76 a 0.523699,0.526267 -180 0 0 -0.226825,0.70728 l -0.0032,0.0227 3.02,5.07 a 0.523699,0.526267 -180 0 0 0.700489,0.22459 l 0.02951,-0.005 5.04,-3.04 a 0.520363,0.522915 -180 0 0 0,-0.73409 L 24.05,116.93 a 0.560391,0.563139 -180 0 0 -0.73051,0 L 21.58,117.98 a 9.41991,9.4661 -180 0 0 0.27,-3.85 8.95959,9.00352 -180 0 0 -1.25,-3.69 9.24979,9.29515 -180 0 0 -1.7,-2.17 10.8542,10.9075 -180 0 0 -2.23,-1.54 9.17974,9.22476 -180 0 0 -2.54,-0.87 9.22644,9.27168 -180 0 0 -2.15,-0.33 0.55372,0.556435 -180 0 0 -0.487007,0.59331 L 11.49,108.18 a 0.560391,0.563139 -180 0 0 0.523699,0.4894 A 6.00419,6.03363 0 0 1 13.57,108.78 Z"
   class="st7"
   id="path63"
   inkscape:connector-curvature="0"
   style="fill:#ffffff;stroke:none;stroke-width:34;stroke-linecap:butt" />
				</g>
			</g>
		</g>
	</g>
</svg>
